storage/app/icons/phosphoricons/fill/dice-six-fill.svg

<svg xmlns="http://www.w3.org/2000/svg" fill="currentColor" viewBox="0 0 256 256"><path d="M192 32H64a32 32 0 0 0-32 32v128a32 32 0 0 0 32 32h128a32 32 0 0 0 32-32V64a32 32 0 0 0-32-32M92 184a12 12 0 1 1 12-12 12 12 0 0 1-12 12m0-44a12 12 0 1 1 12-12 12 12 0 0 1-12 12m0-44a12 12 0 1 1 12-12 12 12 0 0 1-12 12m72 88a12 12 0 1 1 12-12 12 12 0 0 1-12 12m0-44a12 12 0 1 1 12-12 12 12 0 0 1-12 12m0-44a12 12 0 1 1 12-12 12 12 0 0 1-12 12"/></svg>

<svg xmlns="http://www.w3.org/2000/svg" viewBox="0 0 256 256" fill="currentColor"><path d="M192,32H64A32,32,0,0,0,32,64V192a32,32,0,0,0,32,32H192a32,32,0,0,0,32-32V64A32,32,0,0,0,192,32ZM92,184a12,12,0,1,1,12-12A12,12,0,0,1,92,184Zm0-44a12,12,0,1,1,12-12A12,12,0,0,1,92,140Zm0-44a12,12,0,1,1,12-12A12,12,0,0,1,92,96Zm72,88a12,12,0,1,1,12-12A12,12,0,0,1,164,184Zm0-44a12,12,0,1,1,12-12A12,12,0,0,1,164,140Zm0-44a12,12,0,1,1,12-12A12,12,0,0,1,164,96Z"/></svg>
